Images/Best-tour-plan-footer.svg

<svg width="153" height="175" viewBox="0 0 153 175" fill="none" xmlns="http://www.w3.org/2000/svg">
<path d="M37.9688 34.875C37.9688 36.6042 37.6458 38.0938 37 39.3438C36.375 40.5938 35.5312 41.6562 34.4688 42.5312C33.4062 43.4062 32.1771 44.125 30.7812 44.6875C29.4062 45.2292 27.9688 45.6562 26.4688 45.9688C24.9688 46.2812 23.4583 46.4896 21.9375 46.5938C20.4375 46.6979 19.0312 46.75 17.7188 46.75C16.4271 46.75 15.0833 46.6979 13.6875 46.5938C12.3125 46.5104 10.9375 46.3542 9.5625 46.125C8.1875 45.8958 6.83333 45.5938 5.5 45.2188C4.16667 44.8229 2.90625 44.3333 1.71875 43.75L1.65625 3.5C2.82292 3.02083 4.0625 2.59375 5.375 2.21875C6.6875 1.82292 8.02083 1.5 9.375 1.25C10.75 0.979167 12.1146 0.78125 13.4688 0.65625C14.8229 0.510417 16.1354 0.4375 17.4062 0.4375C18.8854 0.4375 20.375 0.53125 21.875 0.71875C23.3958 0.90625 24.8542 1.21875 26.25 1.65625C27.6458 2.09375 28.9479 2.66667 30.1562 3.375C31.3646 4.0625 32.4167 4.91667 33.3125 5.9375C34.2292 6.95833 34.9375 8.14583 35.4375 9.5C35.9583 10.8542 36.2188 12.4167 36.2188 14.1875C36.2188 15.3542 36.0521 16.4479 35.7188 17.4688C35.3854 18.4896 34.9062 19.4062 34.2812 20.2188C33.6562 21.0312 32.8958 21.7292 32 22.3125C31.1042 22.875 30.0938 23.2917 28.9688 23.5625C30.3229 23.9167 31.5521 24.4375 32.6562 25.125C33.7812 25.8125 34.7292 26.6458 35.5 27.625C36.2917 28.6042 36.8958 29.7083 37.3125 30.9375C37.75 32.1667 37.9688 33.4792 37.9688 34.875ZM22.0938 17.0625C22.0938 16.4583 21.9688 15.9479 21.7188 15.5312C21.4688 15.0938 21.1562 14.7396 20.7812 14.4688C20.4271 14.1979 20.0312 14 19.5938 13.875C19.1771 13.75 18.8021 13.6875 18.4688 13.6875C18.0521 13.6875 17.6458 13.75 17.25 13.875C16.8542 14 16.4688 14.1458 16.0938 14.3125L15.9062 21.25C16.3854 21.25 16.9792 21.2083 17.6875 21.125C18.3958 21.0417 19.0729 20.8646 19.7188 20.5938C20.3854 20.3021 20.9479 19.8854 21.4062 19.3438C21.8646 18.7812 22.0938 18.0208 22.0938 17.0625ZM17.6562 27.25C17.0521 27.25 16.4688 27.3125 15.9062 27.4375L15.7812 34.5625C16.0938 34.625 16.3958 34.6875 16.6875 34.75C17 34.7917 17.3021 34.8125 17.5938 34.8125C18.0312 34.8125 18.5104 34.7708 19.0312 34.6875C19.5521 34.5833 20.0417 34.3958 20.5 34.125C20.9583 33.8333 21.3333 33.4479 21.625 32.9688C21.9375 32.4896 22.0938 31.8542 22.0938 31.0625C22.0938 30.2708 21.9375 29.625 21.625 29.125C21.3333 28.625 20.9688 28.2396 20.5312 27.9688C20.0938 27.6771 19.6146 27.4896 19.0938 27.4062C18.5729 27.3021 18.0938 27.25 17.6562 27.25ZM73.9062 20.75C73.9062 22.5625 73.7812 24.375 73.5312 26.1875C69.9688 26.4167 66.4271 26.7917 62.9062 27.3125C59.3854 27.8125 55.8646 28.3125 52.3438 28.8125C52.8854 30.3125 53.7292 31.5104 54.875 32.4062C56.0417 33.3021 57.4271 33.75 59.0312 33.75C59.8646 33.75 60.7708 33.5938 61.75 33.2812C62.75 32.9688 63.7396 32.5833 64.7188 32.125C65.6979 31.6458 66.6354 31.1354 67.5312 30.5938C68.4271 30.0521 69.1979 29.5625 69.8438 29.125L68.3438 43.3125C67.5312 43.9375 66.6458 44.4688 65.6875 44.9062C64.75 45.3438 63.7708 45.6979 62.75 45.9688C61.7292 46.2396 60.6979 46.4375 59.6562 46.5625C58.6146 46.6875 57.5938 46.75 56.5938 46.75C54.5312 46.75 52.6458 46.4688 50.9375 45.9062C49.2292 45.3438 47.6771 44.5625 46.2812 43.5625C44.9062 42.5417 43.6979 41.3438 42.6562 39.9688C41.6146 38.5938 40.75 37.0938 40.0625 35.4688C39.375 33.8438 38.8542 32.125 38.5 30.3125C38.1458 28.5 37.9688 26.6667 37.9688 24.8125C37.9688 22.875 38.1458 20.9375 38.5 19C38.8542 17.0625 39.3854 15.1979 40.0938 13.4062C40.8229 11.6146 41.7292 9.95833 42.8125 8.4375C43.9167 6.89583 45.1979 5.55208 46.6562 4.40625C48.1146 3.26042 49.7604 2.36458 51.5938 1.71875C53.4479 1.07292 55.4896 0.75 57.7188 0.75C59.5729 0.75 61.2604 1.01042 62.7812 1.53125C64.3229 2.03125 65.6875 2.73958 66.875 3.65625C68.0833 4.55208 69.125 5.625 70 6.875C70.8958 8.125 71.625 9.5 72.1875 11C72.7708 12.4792 73.1979 14.0521 73.4688 15.7188C73.7604 17.3646 73.9062 19.0417 73.9062 20.75ZM61.4062 19.125C61.4062 18.5417 61.3438 17.9479 61.2188 17.3438C61.0938 16.7188 60.8854 16.1562 60.5938 15.6562C60.3229 15.1562 59.9583 14.75 59.5 14.4375C59.0417 14.1042 58.4688 13.9375 57.7812 13.9375C56.9479 13.9375 56.2083 14.1667 55.5625 14.625C54.9375 15.0625 54.3958 15.625 53.9375 16.3125C53.4792 16.9792 53.1042 17.7083 52.8125 18.5C52.5208 19.2917 52.3021 20.0208 52.1562 20.6875L61.4062 19.8125V19.125ZM108 30C108 32.8542 107.5 35.3229 106.5 37.4062C105.521 39.4688 104.167 41.1771 102.438 42.5312C100.729 43.8646 98.7188 44.8542 96.4062 45.5C94.1146 46.125 91.6458 46.4375 89 46.4375C87.9792 46.4375 86.8542 46.3021 85.625 46.0312C84.4167 45.7604 83.1875 45.4271 81.9375 45.0312C80.6875 44.6146 79.4792 44.1771 78.3125 43.7188C77.1667 43.2396 76.1458 42.7917 75.25 42.375L76.625 30.125C78.3958 31.1875 80.3542 32 82.5 32.5625C84.6667 33.1042 86.7917 33.375 88.875 33.375C89.2708 33.375 89.75 33.3646 90.3125 33.3438C90.875 33.3021 91.4062 33.2083 91.9062 33.0625C92.4271 32.8958 92.8646 32.6562 93.2188 32.3438C93.5729 32.0312 93.75 31.5833 93.75 31C93.75 30.6042 93.625 30.2708 93.375 30C93.125 29.7083 92.8021 29.4792 92.4062 29.3125C92.0104 29.125 91.5625 28.9896 91.0625 28.9062C90.5625 28.8021 90.0729 28.7292 89.5938 28.6875C89.1146 28.6458 88.6667 28.625 88.25 28.625C87.8333 28.625 87.5 28.625 87.25 28.625C85.4583 28.625 83.8229 28.3438 82.3438 27.7812C80.8854 27.2188 79.625 26.4271 78.5625 25.4062C77.5208 24.3646 76.7083 23.1146 76.125 21.6562C75.5417 20.1771 75.25 18.5417 75.25 16.75C75.25 14.2917 75.7396 12.0938 76.7188 10.1562C77.7188 8.19792 79.0417 6.54167 80.6875 5.1875C82.3542 3.8125 84.2604 2.76042 86.4062 2.03125C88.5521 1.30208 90.7708 0.9375 93.0625 0.9375C94.0833 0.9375 95.1354 0.979167 96.2188 1.0625C97.3021 1.125 98.375 1.25 99.4375 1.4375C100.521 1.625 101.573 1.86458 102.594 2.15625C103.615 2.44792 104.583 2.8125 105.5 3.25L104.312 15.9375C102.896 15.4583 101.406 15.0625 99.8438 14.75C98.3021 14.4167 96.7917 14.25 95.3125 14.25C95.0417 14.25 94.6875 14.2604 94.25 14.2812C93.8333 14.2812 93.3854 14.3125 92.9062 14.375C92.4479 14.4167 91.9792 14.4896 91.5 14.5938C91.0208 14.6979 90.5938 14.8438 90.2188 15.0312C89.8438 15.1979 89.5417 15.4271 89.3125 15.7188C89.0833 16.0104 88.9792 16.3542 89 16.75C89.0208 17.2083 89.1875 17.5625 89.5 17.8125C89.8333 18.0625 90.25 18.25 90.75 18.375C91.2708 18.4792 91.8333 18.5312 92.4375 18.5312C93.0625 18.5312 93.6771 18.5208 94.2812 18.5C94.8854 18.4583 95.4479 18.4271 95.9688 18.4062C96.4896 18.3646 96.9167 18.3542 97.25 18.375C98.9167 18.4792 100.417 18.8333 101.75 19.4375C103.083 20.0417 104.208 20.8438 105.125 21.8438C106.062 22.8438 106.771 24.0417 107.25 25.4375C107.75 26.8125 108 28.3333 108 30ZM142.375 1.9375L142.062 15.1875L132.75 15.5625L131.625 44.5625L118.438 45.25L117.25 16.25L107.938 16.75L108.312 2L142.375 1.9375ZM38 145.188C38 147.208 37.6979 149 37.0938 150.562C36.4896 152.125 35.6562 153.5 34.5938 154.688C33.5521 155.854 32.3229 156.844 30.9062 157.656C29.4896 158.448 27.9688 159.104 26.3438 159.625C24.7396 160.125 23.0729 160.5 21.3438 160.75C19.6146 160.979 17.9167 161.104 16.25 161.125V174.438H1.6875C1.6875 172.062 1.6875 169.75 1.6875 167.5C1.70833 165.25 1.71875 163.021 1.71875 160.812C1.73958 158.583 1.75 156.344 1.75 154.094C1.77083 151.844 1.79167 149.521 1.8125 147.125C1.85417 144.583 1.86458 142.042 1.84375 139.5C1.82292 136.958 1.875 134.396 2 131.812C4.66667 131.021 7.33333 130.427 10 130.031C12.6667 129.635 15.4167 129.438 18.25 129.438C19.8542 129.438 21.4583 129.573 23.0625 129.844C24.6667 130.094 26.1979 130.5 27.6562 131.062C29.1354 131.625 30.5 132.333 31.75 133.188C33.0208 134.021 34.1146 135.021 35.0312 136.188C35.9479 137.354 36.6667 138.688 37.1875 140.188C37.7292 141.688 38 143.354 38 145.188ZM24.125 146.25C24.125 144.896 23.7083 143.844 22.875 143.094C22.0625 142.323 21 141.938 19.6875 141.938C19.25 141.938 18.7917 141.979 18.3125 142.062C17.8542 142.125 17.4167 142.208 17 142.312L16.625 151.438C16.9167 151.479 17.1979 151.5 17.4688 151.5C17.7396 151.5 18.0208 151.5 18.3125 151.5C19.0625 151.5 19.7812 151.375 20.4688 151.125C21.1771 150.875 21.8021 150.521 22.3438 150.062C22.8854 149.583 23.3125 149.031 23.625 148.406C23.9583 147.76 24.125 147.042 24.125 146.25ZM67.1875 157.438L65.875 171.312L39.5625 173.375L40.5625 128.75H56.8125L54.5 157.438H67.1875ZM108.062 171.312L92.5625 173.312L90.6875 166.25H83.5625L82 173.312L66.0625 171.75L78.5 130.125L95.875 129.25L108.062 171.312ZM89.5625 156.688L87.1875 145.812L84.875 156.688H89.5625ZM147.5 158.188C147.5 160.542 147.469 162.875 147.406 165.188C147.365 167.479 147.292 169.792 147.188 172.125L129.188 171.812C129.812 168.125 130.354 164.448 130.812 160.781C131.271 157.094 131.5 153.375 131.5 149.625C131.5 149.354 131.49 148.917 131.469 148.312C131.448 147.708 131.406 147.031 131.344 146.281C131.281 145.51 131.188 144.729 131.062 143.938C130.958 143.125 130.802 142.385 130.594 141.719C130.406 141.052 130.167 140.51 129.875 140.094C129.604 139.656 129.271 139.438 128.875 139.438C128.167 139.438 127.562 139.646 127.062 140.062C126.583 140.479 126.177 141.021 125.844 141.688C125.531 142.333 125.281 143.062 125.094 143.875C124.906 144.688 124.76 145.5 124.656 146.312C124.573 147.125 124.51 147.896 124.469 148.625C124.448 149.333 124.438 149.917 124.438 150.375C124.333 154.062 124.25 157.729 124.188 161.375C124.125 165 124.042 168.667 123.938 172.375L108 173.062C108.417 165.708 108.812 158.396 109.188 151.125C109.583 143.854 109.896 136.542 110.125 129.188L124.875 128.438L124.75 133.438C125.333 132.729 125.958 132.062 126.625 131.438C127.312 130.812 128.042 130.281 128.812 129.844C129.583 129.385 130.396 129.031 131.25 128.781C132.125 128.51 133.042 128.375 134 128.375C135.771 128.375 137.323 128.667 138.656 129.25C139.99 129.833 141.135 130.625 142.094 131.625C143.052 132.625 143.854 133.812 144.5 135.188C145.146 136.542 145.667 137.99 146.062 139.531C146.458 141.073 146.76 142.688 146.969 144.375C147.177 146.042 147.312 147.688 147.375 149.312C147.458 150.938 147.5 152.51 147.5 154.031C147.5 155.552 147.5 156.938 147.5 158.188Z" fill="white"/>
<path d="M34.6875 65.9375L34.375 79.1875L25.0625 79.5625L23.9375 108.562L10.75 109.25L9.5625 80.25L0.25 80.75L0.625 66L34.6875 65.9375ZM74.4688 86.0625C74.4688 87.9583 74.25 89.7917 73.8125 91.5625C73.375 93.3125 72.7396 94.9583 71.9062 96.5C71.0938 98.0417 70.0938 99.4583 68.9062 100.75C67.7396 102.021 66.4167 103.115 64.9375 104.031C63.4792 104.948 61.8854 105.667 60.1562 106.188C58.4271 106.688 56.5938 106.938 54.6562 106.938C52.7812 106.938 50.9896 106.698 49.2812 106.219C47.5938 105.74 46.0104 105.073 44.5312 104.219C43.0521 103.344 41.7083 102.302 40.5 101.094C39.3125 99.8646 38.2917 98.5104 37.4375 97.0312C36.6042 95.5312 35.9479 93.9271 35.4688 92.2188C35.0104 90.5104 34.7812 88.7292 34.7812 86.875C34.7812 85.0625 35 83.2917 35.4375 81.5625C35.875 79.8125 36.5 78.1667 37.3125 76.625C38.1458 75.0833 39.1458 73.6667 40.3125 72.375C41.4792 71.0833 42.7812 69.9688 44.2188 69.0312C45.6771 68.0938 47.25 67.3646 48.9375 66.8438C50.625 66.3229 52.4062 66.0625 54.2812 66.0625C57.3021 66.0625 60.0521 66.5312 62.5312 67.4688C65.0312 68.4062 67.1562 69.75 68.9062 71.5C70.6771 73.2292 72.0417 75.3333 73 77.8125C73.9792 80.2708 74.4688 83.0208 74.4688 86.0625ZM60.5938 86.875C60.5938 85.9792 60.4583 85.1146 60.1875 84.2812C59.9375 83.4271 59.5625 82.6771 59.0625 82.0312C58.5625 81.3646 57.9375 80.8333 57.1875 80.4375C56.4583 80.0208 55.6146 79.8125 54.6562 79.8125C53.6771 79.8125 52.8021 79.9896 52.0312 80.3438C51.2604 80.6979 50.5938 81.1875 50.0312 81.8125C49.4896 82.4167 49.0729 83.1354 48.7812 83.9688C48.4896 84.7812 48.3438 85.6458 48.3438 86.5625C48.3438 87.4375 48.4688 88.3125 48.7188 89.1875C48.9688 90.0625 49.3438 90.8542 49.8438 91.5625C50.3438 92.2708 50.9583 92.8438 51.6875 93.2812C52.4375 93.7188 53.3021 93.9375 54.2812 93.9375C55.2604 93.9375 56.1354 93.75 56.9062 93.375C57.6979 92.9792 58.3646 92.4583 58.9062 91.8125C59.4479 91.1458 59.8646 90.3854 60.1562 89.5312C60.4479 88.6771 60.5938 87.7917 60.5938 86.875ZM113.906 66C112.969 73.3333 112.167 80.6354 111.5 87.9062C110.833 95.1562 110.198 102.458 109.594 109.812L96.7812 110.75L97.3438 105.938C96.9271 106.417 96.4375 106.833 95.875 107.188C95.3333 107.542 94.75 107.833 94.125 108.062C93.5 108.271 92.8542 108.427 92.1875 108.531C91.5208 108.615 90.8854 108.646 90.2812 108.625C88.8646 108.604 87.5312 108.333 86.2812 107.812C85.0312 107.271 83.8854 106.562 82.8438 105.688C81.8021 104.792 80.8646 103.76 80.0312 102.594C79.1979 101.406 78.4896 100.167 77.9062 98.875C77.3438 97.5625 76.9062 96.2292 76.5938 94.875C76.3021 93.5208 76.1562 92.2083 76.1562 90.9375C76.1562 89.0625 76.1875 87.125 76.25 85.125C76.3333 83.1042 76.4688 81.0833 76.6562 79.0625C76.8438 77.0417 77.0833 75.0417 77.375 73.0625C77.6875 71.0833 78.0729 69.1875 78.5312 67.375C81.0729 67.5 83.625 67.6146 86.1875 67.7188C88.75 67.8229 91.3021 67.8542 93.8438 67.8125C93.3646 69.625 92.8854 71.4479 92.4062 73.2812C91.9479 75.0938 91.5312 76.9271 91.1562 78.7812C90.7812 80.6146 90.4792 82.4583 90.25 84.3125C90.0208 86.1667 89.9062 88.0417 89.9062 89.9375C89.9062 90.375 89.9271 91 89.9688 91.8125C90.0104 92.625 90.1146 93.4271 90.2812 94.2188C90.4688 95.0104 90.7396 95.7083 91.0938 96.3125C91.4688 96.8958 91.9896 97.1875 92.6562 97.1875C93.4479 97.1875 94.1562 96.8542 94.7812 96.1875C95.4062 95.5 95.9583 94.5833 96.4375 93.4375C96.9167 92.2917 97.3229 90.9688 97.6562 89.4688C98.0104 87.9688 98.3021 86.4062 98.5312 84.7812C98.7812 83.1354 98.9792 81.4792 99.125 79.8125C99.2708 78.1458 99.375 76.5833 99.4375 75.125C99.5208 73.6458 99.5729 72.3229 99.5938 71.1562C99.6354 69.9896 99.6562 69.0833 99.6562 68.4375C99.6562 68.0208 99.6458 67.6146 99.625 67.2188C99.6042 66.8229 99.5729 66.4167 99.5312 66C100.885 66.0417 102.229 66.0729 103.562 66.0938C104.896 66.1146 106.24 66.125 107.594 66.125C108.635 66.125 109.677 66.125 110.719 66.125C111.781 66.1042 112.844 66.0625 113.906 66ZM152.406 79.875C152.406 81.5 152.26 82.9792 151.969 84.3125C151.698 85.625 151.26 86.8333 150.656 87.9375C150.052 89.0417 149.271 90.0625 148.312 91C147.354 91.9375 146.198 92.8333 144.844 93.6875L152.281 106.938L138.219 109.688L133.406 96.375L129.531 96.5L128.969 109.5H115.531C115.635 104.75 115.729 100.021 115.812 95.3125C115.917 90.6042 116.031 85.875 116.156 81.125C116.198 78.7292 116.24 76.3542 116.281 74C116.323 71.6458 116.406 69.2708 116.531 66.875C117.99 66.3333 119.427 65.8854 120.844 65.5312C122.26 65.1771 123.677 64.9062 125.094 64.7188C126.531 64.5104 127.979 64.375 129.438 64.3125C130.917 64.2292 132.427 64.1875 133.969 64.1875C136.344 64.1875 138.635 64.5208 140.844 65.1875C143.073 65.8333 145.042 66.8125 146.75 68.125C148.458 69.4375 149.823 71.0729 150.844 73.0312C151.885 74.9896 152.406 77.2708 152.406 79.875ZM138.406 80.875C138.406 80 138.281 79.1979 138.031 78.4688C137.802 77.7396 137.448 77.1146 136.969 76.5938C136.51 76.0521 135.927 75.6354 135.219 75.3438C134.531 75.0312 133.719 74.875 132.781 74.875C132.365 74.875 131.958 74.9062 131.562 74.9688C131.167 75.0104 130.781 75.0833 130.406 75.1875L129.906 86.8125H130.656C131.552 86.8125 132.458 86.6979 133.375 86.4688C134.312 86.2396 135.146 85.8854 135.875 85.4062C136.625 84.9271 137.229 84.3125 137.688 83.5625C138.167 82.8125 138.406 81.9167 138.406 80.875Z" fill="#EC1F46"/>
</svg>

<svg width="153" height="175" fill="none" xmlns="http://www.w3.org/2000/svg"><defs/><path d="M37.97 34.88a9.62 9.62 0 01-3.5 7.65c-1.06.88-2.3 1.6-3.69 2.16-1.37.54-2.81.97-4.31 1.28-1.5.31-3.01.52-4.53.62a54.25 54.25 0 01-12.38-.47 38.18 38.18 0 01-4.06-.9c-1.33-.4-2.6-.89-3.78-1.47L1.66 3.5c1.16-.48 2.4-.9 3.71-1.28 1.32-.4 2.65-.72 4-.97 1.38-.27 2.74-.47 4.1-.6a36.78 36.78 0 018.4.07c1.53.19 2.98.5 4.38.94 1.4.43 2.7 1 3.9 1.72 1.21.68 2.27 1.54 3.16 2.56.92 1.02 1.63 2.2 2.13 3.56a13 13 0 01.28 7.97A9.11 9.11 0 0132 22.3c-.9.57-1.9.98-3.03 1.25 1.35.36 2.58.88 3.69 1.57 1.12.68 2.07 1.52 2.84 2.5a11.66 11.66 0 012.47 7.25zM22.09 17.05c0-.6-.12-1.11-.37-1.53a3.53 3.53 0 00-2.13-1.66 4.02 4.02 0 00-2.34 0 11 11 0 00-1.16.44l-.18 6.94c.48 0 1.07-.04 1.78-.13.7-.08 1.38-.26 2.03-.53.67-.29 1.23-.7 1.69-1.25a3.5 3.5 0 00.68-2.28zm-4.43 10.19c-.6 0-1.2.06-1.75.19l-.13 7.12.9.19a6.85 6.85 0 002.35-.06c.52-.1 1.01-.3 1.47-.56a3.44 3.44 0 001.6-3.06c0-.8-.16-1.45-.47-1.95a3.58 3.58 0 00-2.53-1.72c-.53-.1-1-.15-1.44-.15zm56.25-6.5c0 1.81-.13 3.63-.38 5.44-3.56.23-7.1.6-10.62 1.12l-10.57 1.5a7.8 7.8 0 002.53 3.6 6.63 6.63 0 004.16 1.34c.83 0 1.74-.16 2.72-.47 1-.31 1.99-.7 2.97-1.16.98-.47 1.92-.98 2.81-1.53.9-.54 1.67-1.03 2.31-1.46l-1.5 14.18a13.6 13.6 0 01-2.65 1.6c-.94.43-1.92.79-2.94 1.06s-2.05.47-3.1.6a25.7 25.7 0 01-3.06.18 17.15 17.15 0 01-10.31-3.19 17.95 17.95 0 01-3.62-3.6 20.91 20.91 0 01-2.6-4.5 25.98 25.98 0 01-1.56-5.15 28.6 28.6 0 01-.53-5.5c0-1.93.18-3.87.53-5.81.35-1.94.89-3.8 1.6-5.6.72-1.79 1.63-3.44 2.71-4.96a19.63 19.63 0 013.85-4.03 17.15 17.15 0 014.93-2.7c1.86-.64 3.9-.96 6.13-.96 1.85 0 3.54.26 5.06.78 1.54.5 2.9 1.21 4.1 2.13 1.2.9 2.25 1.96 3.12 3.21.9 1.25 1.63 2.63 2.19 4.13a22.8 22.8 0 011.28 4.72c.29 1.64.44 3.32.44 5.03zm-12.5-1.63c0-.58-.07-1.17-.2-1.78a5.44 5.44 0 00-.62-1.68c-.27-.5-.63-.91-1.09-1.22a2.85 2.85 0 00-1.72-.5c-.83 0-1.57.23-2.22.69-.62.43-1.16 1-1.62 1.68-.46.67-.84 1.4-1.13 2.19-.29.8-.5 1.52-.65 2.19l9.25-.88v-.68zM108 30c0 2.85-.5 5.32-1.5 7.4a14.06 14.06 0 01-4.06 5.13 17.2 17.2 0 01-6.03 2.97c-2.3.63-4.76.94-7.41.94-1.02 0-2.15-.14-3.38-.4a44.32 44.32 0 01-7.3-2.32 85.99 85.99 0 01-3.07-1.34l1.38-12.26a22.38 22.38 0 005.87 2.44 26.22 26.22 0 007.81.78c.56-.04 1.1-.13 1.6-.28.52-.16.95-.4 1.3-.72.36-.3.54-.76.54-1.34 0-.4-.13-.73-.38-1-.25-.3-.57-.52-.96-.69-.4-.18-.85-.32-1.35-.4a12.54 12.54 0 00-2.81-.29h-1c-1.8 0-3.43-.28-4.9-.84a11.2 11.2 0 01-3.79-2.37 11.02 11.02 0 01-2.44-3.75 13.26 13.26 0 01-.87-4.91c0-2.46.49-4.66 1.47-6.6 1-1.95 2.32-3.6 3.97-4.96a18 18 0 015.72-3.16c2.14-.73 4.36-1.1 6.65-1.1a41.17 41.17 0 016.38.5c1.08.2 2.13.43 3.15.73 1.02.29 2 .65 2.91 1.09l-1.19 12.69a35.9 35.9 0 00-4.47-1.19 21.4 21.4 0 00-8.34-.16c-.48.1-.9.25-1.28.44-.38.17-.68.4-.9.69-.24.29-.34.63-.32 1.03.02.46.19.81.5 1.06.33.25.75.44 1.25.57.52.1 1.08.15 1.69.15a53.59 53.59 0 003.53-.12c.52-.05.95-.06 1.28-.04 1.67.1 3.17.46 4.5 1.07a9.86 9.86 0 015.5 6c.5 1.37.75 2.9.75 4.56zm34.38-28.06l-.32 13.25-9.31.37-1.13 29-13.18.69-1.19-29-9.31.5L108.3 2l34.06-.06zM38 145.19c0 2.02-.3 3.81-.9 5.37a13.34 13.34 0 01-2.5 4.13 14.71 14.71 0 01-3.7 2.97 24.9 24.9 0 01-4.56 1.97c-1.6.5-3.27.87-5 1.12a42.9 42.9 0 01-5.09.38v13.3H1.69v-6.93l.03-6.69c.02-2.23.03-4.47.03-6.72l.06-6.97c.04-2.54.05-5.08.03-7.62a136 136 0 01.16-7.69 56.1 56.1 0 0116.25-2.37c1.6 0 3.2.13 4.81.4 1.6.25 3.14.66 4.6 1.22 1.48.56 2.84 1.27 4.09 2.13a13.66 13.66 0 015.44 7c.54 1.5.81 3.16.81 5zm-13.88 1.06c0-1.35-.41-2.4-1.25-3.16a4.44 4.44 0 00-3.18-1.15 12.39 12.39 0 00-2.69.37l-.38 9.13c.3.04.58.06.85.06h.84a6.26 6.26 0 004.03-1.44c.55-.48.97-1.03 1.29-1.65.33-.65.5-1.37.5-2.16zm43.07 11.19l-1.31 13.87-26.32 2.06 1-44.62h16.25l-2.31 28.69h12.69zm40.87 13.87l-15.5 2-1.87-7.06h-7.13L82 173.31l-15.94-1.56 12.44-41.63 17.38-.87 12.18 42.06zm-18.5-14.62L87.2 145.8l-2.31 10.88h4.68zm57.94 1.5c0 2.35-.03 4.69-.1 7-.03 2.29-.1 4.6-.21 6.94l-18-.32c.62-3.69 1.16-7.36 1.62-11.03a90.22 90.22 0 00.66-12.47 43.07 43.07 0 00-.4-4.37c-.11-.81-.27-1.56-.48-2.22a5.36 5.36 0 00-.72-1.63c-.27-.43-.6-.65-1-.65-.7 0-1.3.2-1.8.62a5.2 5.2 0 00-1.23 1.63c-.3.64-.56 1.37-.75 2.19a24.79 24.79 0 00-.62 4.75l-.03 1.75c-.1 3.68-.19 7.35-.25 11-.06 3.62-.15 7.29-.25 11l-15.94.68c.42-7.35.81-14.66 1.19-21.94.4-7.27.7-14.58.94-21.93l14.75-.75-.13 5a21 21 0 011.88-2 12.14 12.14 0 014.62-2.66 11.54 11.54 0 017.4.47c1.34.58 2.48 1.38 3.44 2.38s1.76 2.18 2.41 3.56c.65 1.35 1.17 2.8 1.56 4.34.4 1.54.7 3.16.9 4.84a92.62 92.62 0 01.53 9.66l.01 4.16z" fill="#fff"/><path d="M34.69 65.94l-.31 13.25-9.32.37-1.12 29-13.19.69-1.19-29-9.31.5L.63 66l34.06-.06zm39.78 20.12c0 1.9-.22 3.73-.66 5.5a21.1 21.1 0 01-4.9 9.19 19.5 19.5 0 01-8.75 5.44c-1.73.5-3.57.75-5.5.75a19.82 19.82 0 01-17.22-9.9 20.53 20.53 0 01-2.66-10.16 21.98 21.98 0 012.53-10.25 21.73 21.73 0 013-4.25 19.1 19.1 0 018.63-5.53c1.69-.53 3.47-.79 5.34-.79 3.02 0 5.77.47 8.25 1.4A17.63 17.63 0 0173 77.82c.98 2.46 1.47 5.21 1.47 8.25zm-13.88.81a8.34 8.34 0 00-1.53-4.84 5.55 5.55 0 00-4.4-2.22 6.07 6.07 0 00-5.88 4.16c-.29.81-.44 1.68-.44 2.6 0 .87.13 1.74.38 2.62a7.8 7.8 0 001.12 2.37c.5.71 1.12 1.28 1.85 1.72a5.92 5.92 0 007.22-1.47c.54-.66.95-1.42 1.25-2.28.29-.85.43-1.74.43-2.66zM113.91 66a618.98 618.98 0 00-2.41 21.9c-.67 7.26-1.3 14.56-1.9 21.91l-12.82.94.56-4.81c-.41.48-.9.9-1.47 1.25a8.58 8.58 0 01-3.68 1.34 11.94 11.94 0 01-5.9-.72 13.93 13.93 0 01-3.45-2.12 17.42 17.42 0 01-2.8-3.1 22.82 22.82 0 01-2.13-3.72c-.57-1.3-1-2.64-1.32-4-.29-1.35-.43-2.66-.43-3.93a118.5 118.5 0 011.22-17.88c.3-1.98.7-3.87 1.15-5.69 2.54.13 5.1.24 7.66.35 2.56.1 5.11.13 7.65.1l-1.43 5.46c-.46 1.81-.88 3.65-1.25 5.5a71.15 71.15 0 00-.91 5.53 45.8 45.8 0 00-.28 7.5c.04.81.14 1.62.31 2.4.19.8.46 1.5.81 2.1.38.59.9.88 1.57.88.79 0 1.5-.34 2.12-1a9.52 9.52 0 001.66-2.75c.48-1.15.88-2.47 1.22-3.97a78.8 78.8 0 001.47-9.66c.14-1.66.25-3.23.3-4.69.1-1.47.14-2.8.16-3.96.05-1.17.07-2.08.07-2.72a23.23 23.23 0 00-.13-2.44 266.8 266.8 0 008.06.13h3.13c1.06-.03 2.12-.07 3.19-.13zm38.5 13.88c0 1.62-.15 3.1-.44 4.43-.27 1.31-.71 2.52-1.31 3.63A13 13 0 01148.3 91c-.96.94-2.11 1.83-3.47 2.69l7.44 13.25-14.06 2.75-4.81-13.31-3.88.12-.56 13h-13.44c.1-4.75.2-9.48.28-14.19.1-4.7.22-9.44.35-14.19l.12-7.12c.04-2.35.13-4.73.25-7.13a40.87 40.87 0 0112.9-2.56c1.49-.08 3-.12 4.54-.12 2.37 0 4.66.33 6.87 1 2.23.64 4.2 1.62 5.91 2.94a14.37 14.37 0 015.66 11.75zm-14 1c0-.88-.13-1.68-.38-2.41a4.9 4.9 0 00-2.81-3.13 5.85 5.85 0 00-2.44-.47c-.41 0-.82.04-1.22.1-.4.04-.78.11-1.15.22l-.5 11.62h.75c.9 0 1.8-.11 2.72-.34a7.95 7.95 0 002.5-1.06 5.68 5.68 0 001.8-1.85c.49-.75.73-1.64.73-2.69z" fill="#EC1F46"/></svg>
